src/images/svg/pa-close-account.svg

<svg xmlns="http://www.w3.org/2000/svg" width="48" height="48"><g fill="none" fill-rule="evenodd"><path d="M0 0h48v48H0z"/><g fill="#333" fill-rule="nonzero"><path d="M31.879 24.448l-1.16.904 1.422.373c2.602.684 4.928 1.71 6.913 3.046l.813-1.206c-1.78-1.199-3.808-2.16-6.046-2.868a14.2 14.2 0 004.48-10.394C38.3 6.416 31.884 0 23.998 0 16.112 0 9.696 6.416 9.696 14.303c0 3.98 1.616 7.698 4.477 10.394C5.143 27.54 0 34.289 0 43.394V48h30.303v-1.455H1.455v-3.151c0-4.584 1.351-8.476 4.017-11.569 2.458-2.851 6.048-4.96 10.382-6.1l1.422-.373-1.16-.904a12.773 12.773 0 01-4.965-10.145c0-7.085 5.763-12.849 12.848-12.849 7.084 0 12.847 5.764 12.847 12.849 0 3.99-1.81 7.688-4.967 10.145z"/><path d="M39.515 31.03c-4.678 0-8.485 3.806-8.485 8.485 0 4.679 3.807 8.485 8.485 8.485C44.194 48 48 44.194 48 39.515c0-4.679-3.806-8.485-8.485-8.485zm0 15.515a7.038 7.038 0 01-7.03-7.03 7.038 7.038 0 017.03-7.03 7.038 7.038 0 017.03 7.03 7.037 7.037 0 01-7.03 7.03z"/><path d="M41.744 36.258l-2.229 2.229-2.228-2.229-1.029 1.029 2.229 2.228-2.229 2.229 1.029 1.028 2.228-2.228 2.229 2.228 1.028-1.028-2.228-2.229 2.228-2.228z"/></g></g></svg>

<svg role='img' xmlns="http://www.w3.org/2000/svg" width="48" height="48" viewBox="0 0 48 48">
    <title id='pa-close-account'>Close account</title>
    <g fill="none" fill-rule="evenodd">
        <path d="M0 0H48V48H0z" />
        <g fill="#333" fill-rule="nonzero">
            <path
                d="M31.879 24.448l-1.16.904 1.422.373c2.602.684 4.928 1.71 6.913 3.046l.813-1.206c-1.78-1.199-3.808-2.16-6.046-2.868 2.863-2.697 4.48-6.414 4.48-10.394C38.3 6.416 31.884 0 23.998 0 16.112 0 9.696 6.416 9.696 14.303c0 3.98 1.616 7.698 4.477 10.394C5.143 27.54 0 34.289 0 43.394V48h30.303v-1.455H1.455v-3.151c0-4.584 1.351-8.476 4.017-11.569 2.458-2.851 6.048-4.96 10.382-6.1l1.422-.373-1.16-.904c-3.156-2.456-4.965-6.153-4.965-10.145 0-7.085 5.763-12.849 12.848-12.849 7.084 0 12.847 5.764 12.847 12.849 0 3.99-1.81 7.688-4.967 10.145z" />
            <path
                d="M39.515 31.03c-4.678 0-8.485 3.806-8.485 8.485 0 4.679 3.807 8.485 8.485 8.485C44.194 48 48 44.194 48 39.515c0-4.679-3.806-8.485-8.485-8.485zm0 15.515c-3.876 0-7.03-3.153-7.03-7.03 0-3.876 3.154-7.03 7.03-7.03 3.877 0 7.03 3.154 7.03 7.03 0 3.877-3.153 7.03-7.03 7.03z" />
            <path
                d="M41.744 36.258L39.515 38.487 37.287 36.258 36.258 37.287 38.487 39.515 36.258 41.744 37.287 42.772 39.515 40.544 41.744 42.772 42.772 41.744 40.544 39.515 42.772 37.287z" />
        </g>
    </g>
</svg>
